symbols/web/assignment_ind/materialsymbolssharp/assignment_ind_wght600fill1_48px.svg

<svg xmlns="http://www.w3.org/2000/svg" height="48" width="48"><path d="M5.3 42.7V5.25h13.6q.05-1.85 1.55-3.325T24 .45q2.05 0 3.55 1.475T29.1 5.25h13.65V42.7ZM24 7.05q.75 0 1.2-.45.45-.45.45-1.2t-.45-1.2q-.45-.45-1.2-.45t-1.2.45q-.45.45-.45 1.2t.45 1.2q.45.45 1.2.45Zm.1 20.3q3 0 5.025-2.025Q31.15 23.3 31.15 20.3q0-3-2.025-5.025Q27.1 13.25 24.1 13.25q-3 0-5.025 2.025Q17.05 17.3 17.05 20.3q0 3 2.025 5.025Q21.1 27.35 24.1 27.35ZM9.25 38.75h29.5V36.4q-3-2.65-6.675-4.275Q28.4 30.5 24 30.5q-4.4 0-8.075 1.625Q12.25 33.75 9.25 36.4Z"/></svg>

<svg xmlns="http://www.w3.org/2000/svg" height="48" width="48"><path d="M5.3 42.7V5.25H18.9Q18.95 3.4 20.45 1.925Q21.95 0.45 24 0.45Q26.05 0.45 27.55 1.925Q29.05 3.4 29.1 5.25H42.75V42.7ZM24 7.05Q24.75 7.05 25.2 6.6Q25.65 6.15 25.65 5.4Q25.65 4.65 25.2 4.2Q24.75 3.75 24 3.75Q23.25 3.75 22.8 4.2Q22.35 4.65 22.35 5.4Q22.35 6.15 22.8 6.6Q23.25 7.05 24 7.05ZM24.1 27.35Q27.1 27.35 29.125 25.325Q31.15 23.3 31.15 20.3Q31.15 17.3 29.125 15.275Q27.1 13.25 24.1 13.25Q21.1 13.25 19.075 15.275Q17.05 17.3 17.05 20.3Q17.05 23.3 19.075 25.325Q21.1 27.35 24.1 27.35ZM9.25 38.75H38.75V36.4Q35.75 33.75 32.075 32.125Q28.4 30.5 24 30.5Q19.6 30.5 15.925 32.125Q12.25 33.75 9.25 36.4Z"/></svg>
